packages/react-icons/icons/vertical-bars.svg

<svg width="24" height="25" viewBox="0 0 24 25" xmlns="http://www.w3.org/2000/svg"><path fill-rule="evenodd" clip-rule="evenodd" d="M11.9752 5.33447C12.4723 5.33447 12.8752 5.73742 12.8752 6.23447V18.7652H11.0752V6.23447C11.0752 5.73742 11.4781 5.33447 11.9752 5.33447ZM7.5001 7.29248C7.99715 7.29248 8.4001 7.69542 8.4001 8.19248V18.7653H6.6001V8.19248C6.6001 7.69542 7.00304 7.29248 7.5001 7.29248ZM17.4001 12.5001C17.4001 12.003 16.9972 11.6001 16.5001 11.6001C16.003 11.6001 15.6001 12.003 15.6001 12.5001V18.7655H17.4001V12.5001Z"/></svg>

<svg xmlns="http://www.w3.org/2000/svg" width="24" height="25"><path fill-rule="evenodd" d="M11.975 5.334a.9.9 0 0 1 .9.9v12.531h-1.8V6.235a.9.9 0 0 1 .9-.9ZM7.5 7.292a.9.9 0 0 1 .9.9v10.573H6.6V8.192a.9.9 0 0 1 .9-.9Zm9.9 5.208a.9.9 0 1 0-1.8 0v6.265h1.8V12.5Z" clip-rule="evenodd"/></svg>
